X:1
T:Title
%%score [ ( 1 2 ) ( 3 4 ) ]
L:1/8
Q:1/4=100
M:4/4
K:A
V:1 treble nm="Midi_74"
V:2 treble 
V:3 bass nm="Midi_69"
V:4 bass 
V:1
"^St Godric (66. 66. 88)""^John Bacchus Dykes\n(1823-76)""^Henry Francis Lyte\n(1793-1847)""^Whom should we love like Thee" c2 | %1
 B2 A2 F2 G2 | A6 B2 | c2 e2 d2 c2 | B6 || c2 | B2 E2 A2 A2 | G6 A2 | B2 c2 E2 ^D2 | E6 || E2 | %11
 E2 E2 E2 A2 | A2 A2 A2 A2 | d2 d2 c2 B2 | A4 B4 | A6 |] %16
V:2
 E2 | D2 C2 F2 (ED) | C6 E2 | E2 E2 (FG) A2 | G6 || E2 | F2 E2 E2 ^D2 | E6 E2 | E3 C B,2 A,2 | %9
w: ~~Whom|should we love like *|Thee, Our|God, our Guide, * our|King,|The|tower to which we|flee, The|rock to which we|
w: The|storm up- on us *|fell, The|floods a- round * us|rose;|The|depths of death and|hell Seemed|on our souls to|
w: He|came, the King of *|kings, He|bowed the sab\- * le|sky;|And|on the tem- pest's|wings Walked|down ser- ene from|
w: A-|bove the storm He *|stood, And|awed it to * re-|pose;|He|drew us from the|flood, And|scat- tered all our|
w: ~~Whom|should we love like *|Thee, Our|God, our Guide, * our|King,|The|tower to which we|flee, The|rock to which we|
 G,6 || G,2 | A,2 B,2 C2 C2 | D2 E2 F2 E2 | D2 E2 E2 F2 | E4 D4 | C6 |] %16
w: cling?|O|for a thou- sand|tongues to show The|mer- cies which to|Thee we|owe.|
w: close;|To|God we cried in|strong des- pair, He|heard, and came to|help our|prayer.|
w: high;|The|earth be- neath His|foot- steps shook, The|moun- tains quaked at|His re-|buke.|
w: foes;|He|set us in a|spac- ious place, And|there up- holds up|by His|grace.|
w: cling?|O|for a thou- sand|tongues to show The|mer- cies which to|Thee we|owe.|
V:3
 A,2 | G,2 A,2 D2 B,2 | A,6 E2 | E2 C2 D2 E2 | E6 || C2 | ^D2 B,2 C2 A,2 | B,6 A,2 | %8
 G,2 F,2 G,2 F,2 | E,6 || E,2 | F,2 G,2 A,2 A,2 | B,2 C2 D2 E,2 | F,2 G,2 A,2 D2 | C4 G,4 | A,6 |] %16
V:4
 A,2 | E,2 F,2 D,2 E,2 | F,6 G,2 | A,2 C2 B,2 A,2 | E,6 || A,2 | A,2 G,2 F,2 F,2 | E,6 C,2 | %8
 B,,2 A,,2 B,,2 B,,2 | E,6 || D,2 | C,2 B,,2 A,,2 =G,2 | F,2 E,2 D,2 C,2 | B,,2 B,,2 C,2 D,2 | %14
 E,4 E,4 | A,,6 |] %16

